build/img/features/icon-1.svg

<svg width="81" height="81" viewBox="0 0 81 81" fill="none" xmlns="http://www.w3.org/2000/svg">
<path fill-rule="evenodd" clip-rule="evenodd" d="M66.2822 63.3129C59.8945 63.3129 60.7393 54.8754 65.8132 54.8754C69.4756 54.8754 71.632 58.9995 69.054 62.0228C68.5399 62.6257 67.3371 63.3129 66.2822 63.3129ZM61.7505 22.2188V21.4376C61.7505 19.6201 63.6679 17.6872 65.501 17.6872H66.4383C70.9107 17.6872 71.8828 25.5247 66.2208 26.0662C63.9394 26.2844 61.7505 24.2087 61.7505 22.2181V22.2188ZM27.0626 5.49993V13.0002C22.5975 13.0002 22.5095 12.2375 21.9946 15.7453C21.8105 17.0014 21.533 18.4106 21.4376 19.5631C20.2407 19.663 18.1191 20.9694 17.6871 20.9694C16.8808 20.9694 13.3989 17.5318 12.3751 17.5318C11.8713 17.5318 9.04031 20.6328 8.50769 21.1647C4.25418 25.4182 4.06999 24.2716 6.61618 27.6655C7.25901 28.5221 7.88261 29.3129 8.46849 30.188C8.16371 30.7643 7.92552 31.3672 7.64368 32.0189C7.35222 32.6928 7.07408 33.3734 6.90615 34.0939C5.72479 34.0939 4.49904 34.3868 3.44195 34.5355C2.47733 34.6716 0.5 34.6686 0.5 35.6562V45.0317C0.5 46.1272 1.34774 46.1383 2.24283 46.2574C4.32446 46.5356 6.22189 47.4573 5.65673 45.0317C4.32372 44.721 2.37524 44.6914 2.37524 44.0944V36.4381C4.17355 36.4381 5.65303 36.0372 7.35888 35.7968C8.46257 35.6414 8.40413 35.3463 8.7237 34.3491C10.3127 29.3906 11.6886 31.4597 8.29021 26.9295C7.8508 26.3443 7.39956 25.8258 7.06298 25.1881L12.6495 19.5247L14.9871 21.3267C18.6155 24.0497 17.4127 22.8498 21.2815 21.4384C23.6258 20.5832 22.9859 20.9997 23.469 18.1576C23.6139 17.3062 23.9187 15.7128 23.9379 14.8761H31.9064C31.9064 15.749 32.2282 17.1767 32.3481 18.0282C32.4568 18.7997 32.3806 20.442 33.0501 20.9198C33.4273 21.1884 35.0969 21.6026 35.7035 21.86C37.5507 22.6427 37.8695 23.5903 39.5198 22.3342L43.1557 19.5639L48.8191 25.1504C44.1099 32.0699 45.0324 27.8808 47.0822 34.2307C47.3707 35.1251 47.3078 35.6015 48.3464 35.779C49.9058 36.0453 51.9445 36.4388 53.4684 36.4388V44.0952C53.4684 44.7565 51.8025 44.7077 50.647 44.8675C49.8466 44.9784 47.9899 45.1034 47.5645 45.5347C47.333 45.7685 46.7545 47.7095 46.5289 48.2488C46.3173 48.7548 45.3438 50.4917 45.3438 50.8135C45.3438 51.4216 48.2932 54.8902 48.7814 55.8134L43.2748 61.4014C42.4988 60.8939 41.745 60.3021 40.9683 59.72C37.2207 56.9119 38.6477 58.094 34.5406 59.5432C32.1269 60.3946 32.84 59.9367 32.351 62.8224C32.2134 63.6339 31.905 65.2643 31.905 66.1261H23.9365C23.9024 64.617 23.4808 62.9341 23.2885 61.4613C23.213 60.8851 23.2308 60.3946 22.7921 60.0824C22.2543 59.6993 20.8281 59.3501 20.186 59.0949C16.9023 57.7907 17.9327 57.4268 14.9627 59.6527C14.1053 60.2955 13.3833 60.8666 12.5297 61.4384L7.02303 55.8504C7.39586 55.1854 8.77918 53.8287 8.77918 53.157C8.77918 52.6517 8.34717 52.2197 7.84193 52.2197C7.20649 52.2197 6.78336 53.0571 6.45787 53.4921C6.05101 54.0365 5.6375 54.524 5.24544 55.0966C4.35331 56.3993 6.02216 57.3528 6.86473 58.1961C13.9714 65.3028 10.9696 64.3722 17.6849 59.876C18.1621 60.291 18.8974 60.5063 19.4699 60.7475C20.1416 61.03 20.7334 61.2749 21.4354 61.4384C21.5737 63.0991 21.9872 64.8922 22.2003 66.6107C22.42 68.386 23.1301 67.8445 27.0604 67.8445V75.5009C27.0604 75.8648 27.4776 76.282 27.8416 76.282H39.0915C40.628 76.282 40.3091 74.4068 38.9355 74.4068H28.7788V67.8438C33.7218 67.8438 33.323 68.6649 33.8675 64.9632C34.045 63.756 34.1552 62.5036 34.4038 61.4369C35.6924 61.1366 37.095 60.4346 38.1543 59.8746C39.1263 60.5255 42.6305 63.4682 43.3103 63.4682C44.3119 63.4682 46.6029 60.0307 47.3729 60.0307H60.0292C60.0462 60.7985 60.3731 61.5227 60.6794 62.0368C62.5961 65.2547 66.9568 66.2844 69.9136 63.6643C73.9 60.132 71.5277 53.1555 66.4361 53.1555C64.5778 53.1555 63.1154 53.5809 61.8659 54.6786C61.1255 55.3296 60.0587 56.8757 60.0299 58.1554H49.0921C50.9185 55.428 52.1258 57.1945 49.226 53.3345L47.3737 50.812C47.5275 50.1522 48.0994 49.2016 48.4019 48.4027C49.1239 46.4964 48.43 46.958 53.1821 46.3077C56.0494 45.9157 55.3422 45.5169 55.3422 41.4365C56.2069 41.4365 60.237 41.9403 60.0299 40.3425C59.8716 39.1189 56.6966 39.5613 55.3422 39.5613C55.3422 35.2708 56.1218 35.02 52.6946 34.5525C51.531 34.3935 50.1973 34.0931 48.9353 34.0931C48.612 32.7046 47.6311 31.2962 47.3729 30.1866C47.836 29.4949 51.0309 25.5269 50.9666 25.0306C50.4014 23.9616 49.5411 23.5918 48.9353 22.6871H60.0292C60.0573 23.9542 61.0604 25.6135 61.7897 26.2386C65.9737 29.8219 71.9042 26.8378 71.9042 22.3742C71.9042 20.2163 71.5321 18.9277 69.9935 17.4098C68.6087 16.0435 65.7577 15.3673 63.7286 16.2299C61.9185 16.9992 60.0795 18.6976 60.0292 20.9679H47.3729C46.4216 20.9679 44.4073 17.5303 43.1542 17.5303C42.4159 17.5303 38.8141 20.9679 38.3104 20.9679C37.2444 20.9679 35.6591 19.666 34.4038 19.5617C34.3602 19.0364 34.1878 18.3211 34.1175 17.8166C33.3622 12.4276 34.3365 12.9987 28.7788 12.9987V6.59253H39.0915C40.6435 6.59253 40.7197 4.71729 39.2476 4.71729H27.8416C27.4776 4.71729 27.0604 5.1345 27.0604 5.49845L27.0626 5.49993Z" fill="#02345D" stroke="#02345D"/>
<path fill-rule="evenodd" clip-rule="evenodd" d="M30.188 34.8123C29.5 36 30.1777 36.2813 32.6876 36.2813L31.8761 36.8767C30.9004 37.5255 25.922 40.8344 25.3435 40.969C24.8538 40.6413 24.5601 40.2396 24.0031 39.8091C23.4349 39.3704 23.1886 38.9732 22.6212 38.5345C19.8494 36.3944 21.6707 35.5533 15.232 40.3883C14.7548 40.7463 14.1911 41.2863 13.6252 41.4372C13.6252 37.8421 14.0713 35.4328 15.8741 32.749L17.4933 30.6185C19.7814 28.0073 24.1052 26.1254 27.8438 26.1254C37.6713 26.1254 45.1338 35.8603 41.0378 46.1945C40.5821 47.3441 39.1737 49.6114 38.3126 50.1884C38.3126 48.5735 38.3126 46.9594 38.3126 45.3446C38.3126 43.9864 38.7269 41.2819 37.3754 41.2819C36.4255 41.2819 36.4241 42.1629 36.4337 43.1527L36.4381 52.0636C35.4261 52.5992 34.3683 53.3796 33.1788 53.8042C32.786 53.944 32.2926 54.0661 31.9072 54.251V45.1885C30.9204 44.5279 31.1749 44.5279 30.188 45.1885V52.6887C30.1962 55.1543 30.9085 54.72 26.1254 54.72C25.3716 54.72 25.6564 53.3449 25.6564 51.9075C25.6564 50.8135 25.6564 49.7201 25.6564 48.626C24.8612 48.0934 25.3339 48.0246 24.0941 48.3131C23.7138 49.9472 23.938 52.3492 23.938 54.251C23.5762 54.0772 23.2337 53.998 22.7825 53.8434L20.4678 52.7205C20.0447 52.4527 19.8465 52.2959 19.4063 52.0629C19.4063 50.3962 19.4063 48.7296 19.4063 47.063C19.4063 45.6878 19.8687 43.0003 18.4691 43.0003C17.2011 43.0003 17.5311 44.8622 17.5318 46.125C17.5318 47.4795 17.5318 48.8332 17.5318 50.1876C16.2602 49.3362 14.1061 45.4836 13.9382 43.4686C14.4205 43.3399 16.5642 41.6163 17.1301 41.1917L20.3443 38.9377C20.7001 39.1759 20.766 39.2935 21.0848 39.6034L24.8212 42.9152C25.8598 43.4974 28.2366 41.2597 30.1385 40.1375C31.3605 39.417 32.4857 38.607 33.6256 37.8436C33.525 39.0538 32.7261 39.1196 33.3134 40.3439C34.8181 40.6945 34.5925 40.5052 35.7021 37.7326C35.9358 37.1497 36.1008 36.751 36.3397 36.1696C36.4891 35.8056 36.6704 35.378 36.3427 34.986L33.6685 34.5207C33.0397 34.4349 30.9991 33.9364 30.5 34.5L30.188 34.8123ZM11.75 40.4993C11.75 49.4131 19.0106 56.5931 28.3128 56.5931C30.859 56.5931 32.789 55.8888 34.6539 55.121C35.9329 54.595 38.3807 52.8618 39.3719 51.8698C40.665 50.5767 41.7857 48.777 42.5861 47.1155C43.0359 46.1812 43.3465 45.2366 43.5973 44.2209C43.7246 43.7045 43.8651 42.9944 43.9132 42.5062C44.2098 39.5258 43.9886 36.9737 42.7414 34.1952C41.9632 32.462 40.915 30.7273 39.6049 29.3632C37.3302 26.996 33.1892 24.4055 28.625 24.4055C23.4712 24.4055 19.8487 25.7939 16.3186 29.287C13.5727 32.0033 11.75 36.3922 11.75 40.4993Z" fill="#02345D" stroke="#02345D"/>
<path fill-rule="evenodd" clip-rule="evenodd" d="M65.0319 37.0624H78.6261V43.7815H65.0319V37.0624ZM63.3135 36.1252V44.8748C63.3135 45.2395 63.7307 45.656 64.0946 45.656H79.4073C80.1367 45.656 80.5014 45.292 80.5014 44.5619V36.1244C80.5014 35.7597 80.0841 35.3433 79.7202 35.3433H64.0954C63.7307 35.3433 63.3142 35.7605 63.3142 36.1244L63.3135 36.1252Z" fill="#02345D" stroke="#02345D"/>
<path fill-rule="evenodd" clip-rule="evenodd" d="M45.5012 72.0625H59.0954V78.7816H45.5012V72.0625ZM43.626 71.2813V79.7188C43.626 80.0835 44.0432 80.5 44.4071 80.5H60.0327C60.3966 80.5 60.8139 80.0828 60.8139 79.7188V70.9692C60.8139 70.6045 60.3966 70.188 60.0327 70.188H44.7201C43.9907 70.188 43.626 70.5519 43.626 71.2821V71.2813Z" fill="#02345D" stroke="#02345D"/>
<path fill-rule="evenodd" clip-rule="evenodd" d="M45.5012 2.21842H59.0954V8.93674H45.5012V2.21842ZM43.626 1.28117V9.71865C43.626 10.448 43.9907 10.8127 44.7201 10.8127H59.7205C60.2472 10.8127 60.8146 10.5368 60.8146 10.0316V1.28117C60.8146 0.916474 60.3974 0.5 60.0334 0.5H44.4079C44.0432 0.5 43.6267 0.917214 43.6267 1.28117H43.626Z" fill="#02345D" stroke="#02345D"/>
</svg>

<svg xmlns="http://www.w3.org/2000/svg" width="81" height="81" fill="none" viewBox="0 0 81 81"><path fill="#02345D" fill-rule="evenodd" stroke="#02345D" d="M66.282 63.313c-6.387 0-5.543-8.438-.469-8.438 3.663 0 5.819 4.124 3.241 7.148-.514.603-1.717 1.29-2.772 1.29Zm-4.531-41.094v-.781c0-1.818 1.917-3.75 3.75-3.75h.937c4.473 0 5.445 7.837-.217 8.378-2.282.218-4.47-1.857-4.47-3.848ZM27.063 5.499V13c-4.465 0-4.553-.762-5.068 2.745-.184 1.256-.462 2.666-.557 3.818-1.197.1-3.319 1.406-3.75 1.406-.807 0-4.29-3.437-5.313-3.437-.504 0-3.335 3.1-3.867 3.633-4.254 4.253-4.438 3.107-1.892 6.5.643.857 1.267 1.648 1.852 2.523-.304.576-.542 1.18-.824 1.83-.292.675-.57 1.355-.738 2.076-1.181 0-2.407.293-3.464.441C2.477 34.673.5 34.67.5 35.657v9.376c0 1.095.848 1.106 1.743 1.225 2.081.279 3.979 1.2 3.414-1.225-1.333-.311-3.282-.34-3.282-.938v-7.656c1.799 0 3.278-.4 4.984-.641 1.104-.156 1.045-.45 1.365-1.448 1.589-4.958 2.965-2.89-.434-7.42-.44-.585-.89-1.103-1.227-1.74l5.587-5.664 2.337 1.802c3.629 2.723 2.426 1.523 6.295.111 2.344-.855 1.704-.438 2.187-3.28.145-.852.45-2.445.469-3.282h7.968c0 .873.322 2.3.442 3.152.109.772.033 2.414.702 2.892.377.268 2.047.683 2.654.94 1.847.783 2.166 1.73 3.816.474l3.636-2.77 5.663 5.586c-4.71 6.92-3.787 2.73-1.737 9.08.289.895.226 1.372 1.264 1.549 1.56.266 3.599.66 5.122.66v7.656c0 .662-1.666.613-2.821.773-.8.11-2.657.235-3.082.667-.232.234-.81 2.175-1.036 2.714-.212.506-1.185 2.243-1.185 2.564 0 .609 2.95 4.077 3.437 5l-5.506 5.588c-.776-.507-1.53-1.099-2.307-1.681-3.747-2.808-2.32-1.626-6.427-.177-2.414.852-1.701.394-2.19 3.28-.138.81-.446 2.441-.446 3.303h-7.969c-.034-1.509-.455-3.192-.648-4.665-.075-.576-.057-1.066-.496-1.379-.538-.383-1.964-.732-2.606-.987-3.284-1.304-2.253-1.668-5.223.558-.858.642-1.58 1.214-2.433 1.785L7.023 55.85c.373-.665 1.756-2.021 1.756-2.693a.954.954 0 0 0-.937-.937c-.636 0-1.059.837-1.384 1.272-.407.544-.82 1.032-1.213 1.605-.892 1.302.777 2.256 1.62 3.1 7.106 7.106 4.105 6.175 10.82 1.679.477.415 1.212.63 1.785.872.672.282 1.263.527 1.965.69.139 1.661.552 3.454.765 5.173.22 1.775.93 1.233 4.86 1.233v7.657c0 .364.418.781.782.781h11.25c1.536 0 1.217-1.875-.157-1.875H28.78v-6.563c4.943 0 4.544.82 5.089-2.88.177-1.208.287-2.46.536-3.527 1.288-.3 2.691-1.002 3.75-1.562.972.65 4.476 3.593 5.156 3.593 1.002 0 3.293-3.437 4.063-3.437H60.03c.017.767.344 1.492.65 2.006 1.917 3.218 6.278 4.247 9.235 1.627 3.986-3.532 1.614-10.508-3.478-10.508-1.858 0-3.32.425-4.57 1.523-.74.65-1.807 2.197-1.836 3.476H49.092c1.827-2.727 3.034-.96.134-4.82l-1.852-2.523c.154-.66.725-1.61 1.028-2.41.722-1.906.028-1.444 4.78-2.094 2.867-.392 2.16-.791 2.16-4.871.865 0 4.895.503 4.688-1.094-.158-1.224-3.333-.782-4.688-.782 0-4.29.78-4.541-2.647-5.008-1.164-.16-2.498-.46-3.76-.46-.323-1.388-1.304-2.797-1.562-3.906.463-.692 3.658-4.66 3.594-5.156-.566-1.07-1.426-1.44-2.032-2.344H60.03c.028 1.267 1.031 2.926 1.76 3.552 4.185 3.583 10.115.599 10.115-3.865 0-2.158-.372-3.446-1.91-4.964-1.385-1.366-4.236-2.043-6.265-1.18-1.81.77-3.65 2.468-3.7 4.738H47.373c-.951 0-2.966-3.438-4.219-3.438-.738 0-4.34 3.438-4.844 3.438-1.066 0-2.65-1.302-3.906-1.406-.044-.526-.216-1.24-.287-1.745-.755-5.39.22-4.818-5.338-4.818V6.593h10.313c1.552 0 1.628-1.876.156-1.876H27.842c-.364 0-.782.418-.782.781z" clip-rule="evenodd"/><path fill="#02345D" fill-rule="evenodd" stroke="#02345D" d="M30.188 34.812c-.688 1.188-.01 1.47 2.5 1.47l-.812.595c-.976.648-5.954 3.957-6.533 4.092-.49-.328-.783-.73-1.34-1.16-.568-.439-.814-.836-1.382-1.274-2.772-2.14-.95-2.982-7.389 1.853-.477.358-1.04.898-1.607 1.05 0-3.596.446-6.005 2.25-8.689l1.618-2.13c2.288-2.612 6.612-4.494 10.35-4.494 9.828 0 17.29 9.735 13.195 20.07-.456 1.15-1.864 3.416-2.725 3.993v-4.843c0-1.359.414-4.063-.938-4.063-.95 0-.95.88-.941 1.87l.004 8.912c-1.012.535-2.07 1.316-3.26 1.74-.392.14-.885.262-1.27.447v-9.062c-.988-.661-.733-.661-1.72 0v7.5c.008 2.465.72 2.031-4.063 2.031-.753 0-.469-1.375-.469-2.812v-3.282c-.795-.533-.322-.601-1.562-.313-.38 1.634-.156 4.036-.156 5.938-.362-.174-.704-.253-1.155-.408l-2.315-1.123c-.423-.267-.622-.424-1.062-.657v-5c0-1.375.463-4.063-.937-4.063-1.268 0-.938 1.862-.937 3.125v4.063c-1.272-.852-3.426-4.704-3.594-6.72.482-.128 2.626-1.852 3.192-2.276l3.214-2.254c.356.238.422.355.74.665l3.737 3.312c1.039.582 3.416-1.655 5.317-2.777 1.222-.721 2.348-1.531 3.488-2.294-.101 1.21-.9 1.276-.313 2.5 1.505.35 1.28.161 2.39-2.611.233-.583.398-.982.637-1.563.15-.364.33-.792.003-1.184l-2.675-.465c-.628-.086-2.669-.585-3.168-.021zM11.75 40.5c0 8.914 7.26 16.094 16.563 16.094 2.546 0 4.476-.704 6.34-1.472 1.28-.526 3.728-2.26 4.719-3.251 1.293-1.293 2.414-3.093 3.214-4.754.45-.935.76-1.88 1.011-2.895.128-.516.268-1.227.316-1.715.297-2.98.076-5.532-1.172-8.31-.778-1.734-1.826-3.469-3.136-4.833-2.275-2.367-6.416-4.957-10.98-4.957-5.154 0-8.776 1.388-12.306 4.881-2.746 2.716-4.569 7.105-4.569 11.212Zm53.282-3.438h13.594v6.72H65.032zm-1.718-.937v8.75c0 .364.417.781.78.781h15.313q1.094 0 1.094-1.094v-8.438c0-.364-.417-.78-.78-.78H64.094c-.364 0-.78.416-.78.78zM45.501 72.063h13.594v6.719H45.501zm-1.875-.782v8.438c0 .365.417.781.781.781h15.626c.364 0 .78-.417.78-.781v-8.75c0-.364-.416-.781-.78-.781H44.72q-1.095 0-1.094 1.094Zm1.875-69.063h13.594v6.719H45.501zm-1.875-.937V9.72q0 1.094 1.094 1.094h15c.527 0 1.095-.276 1.095-.781v-8.75c0-.366-.418-.782-.782-.782H44.408c-.365 0-.781.417-.781.781z" clip-rule="evenodd"/></svg>
